!!!COM: Scriabin, Alexander
!!!OTL@@FR: Prélude
!!!OTL@@EN: Prelude
!!!OPR@@FR: 5 Préludes
!!!OPR@@EN: 5 Preludes
!!!OPS: 74
!!!ONM: 5
!!!ODT: 1914
!!!AGN: Prelude
**kern	**kern	**dynam
*staff2	*staff1	*staff1/2
*Ipiano	*Ipiano	*
*clefF4	*clefG2	*
*k[]	*k[]	*
*X:	*X:	*
*M3/2	*M3/2	*
=1	=1	=1
12BBB-X 12BB-X	12r	.
[6FFF [6FF	12E-XL	.
.	12d-X	.
4FFF] 4FF]	12a	.
.	12g	.
.	12ccJ	.
12BBB- 12BB-	12r	.
[6FFF [6FF	12E-L	.
.	12d-	.
4FFF] 4FF]	12a	.
.	12g	.
.	12ffJ	.
12BBBn 12BBn	12r	.
[6FFF [6FF	12E-L	.
.	12dn	.
4FFF] 4FF]	12a	.
.	12g	.
.	[12ffJ	.
!!LO:LB:g=original
=2	=2	=2
*^	*^	*
12GGG 12GG	4r	4r	12ffL]	.
[6DDD-X [6DD-X	.	.	12ee-X	.
.	.	.	12b-XJ	.
2DDD-] 2DD-]	12E-X 12e-X	2c-X 2f	[4cc-X	.
.	[6E-- [6e--	.	.	.
.	1E--] 1e--]	.	1cc-]	.
20DD-LL	.	2c- 2f	.	.
20GG	.	.	.	.
20E--	.	.	.	.
20D-X	.	.	.	.
20GJJ	.	.	.	.
20e--LL	.	.	.	.
20G	.	.	.	.
20D-X	.	.	.	.
20E--	.	.	.	.
20GGJJ	.	.	.	.
4DD-	.	4c- 4f	.	.
*v	*v	*	*	*
*	*v	*v	*
=3	=3	=3
12FFF#X 12FF#X	12r	.
[6CCC#X [6CC#X	12BBn<L	.
.	12A<	.
4CCC#] 4CC#]	12e#X	.
.	12d#X	.
.	12g#XJ	.
12FFF# 12FF#	12r	.
[6CCC# [6CC#	12BB<L	.
.	12A<	.
4CCC#] 4CC#]	12e#	.
.	12d#	.
.	12cc#XJ	.
12FFF##X 12FF##X	12r	.
[6CCC# [6CC#	12BB<L	.
.	12A#X<	.
4CCC#] 4CC#]	12e#	.
.	12d#	.
.	[12cc#J	.
!!LO:LB:g=original
=4	=4	=4
*^	*^	*
12DDD#X 12DD#X	4r	4r	12cc#L]	.
[6AAAA [6AAA	.	.	12b	.
.	.	.	12f#XJ	.
2AAAA] 2AAA]	12BB 12B	2G 2c#X	[4g	.
.	[6BB-X [6B-X	.	.	.
.	1BB-] 1B-]	.	1g]	.
20AAALL	.	2G 2c#	.	.
20DD#	.	.	.	.
20BB-	.	.	.	.
20AA	.	.	.	.
20D#XJJ	.	.	.	.
20B-LL	.	.	.	.
20D#	.	.	.	.
20AA	.	.	.	.
20BB-	.	.	.	.
20DD#JJ	.	.	.	.
4AAA	.	4G 4c#	.	.
=5	=5	=5	=5	=5
12DDD#X 12DD#X	4r	4r	12ra	.
[6AAAA [6AAA	.	.	12f#XL	.
.	.	.	12gJ	.
4AAAA_ 4AAA_	[4BB-X [4B-X	12r	12b-X	.
.	.	[6f# [6cc#X	[6ff#X	.
1AAAA] 1AAA]	8BB-] 8B-]	2f#] 2cc#]	2.ff#]	.
.	4BB- 4B-	.	.	.
.	8BB- 8B-	.	.	.
.	2r	12rA	.	.
.	.	12F#XL	.	.
.	.	12GJ	.	.
.	.	12B-X	4dd#X	.
.	.	6f#	.	.
!!LO:LB:g=original
=6	=6	=6	=6	=6
12AAA 12AA	4r	12ra	12ra	.
[6DDD#X [6DD#X	.	12eeL	6g 6b-X 6ff#X	.
.	.	12dd#XJ	.	.
4DDD#_ 4DD#_	2E 2c#X 2e	[4ee	2g 2b- 2ff#	.
1DDD#] 1DD#]	.	6ee]	.	.
.	.	12dd#	.	.
.	2E 2c# 2e	[4ee	2g 2b- 2ff#	.
.	.	6ee]	.	.
.	.	12dd#	.	.
.	4E 4c# 4e	4ee	4g 4b- 4ff#	.
=7	=7	=7	=7	=7
12CCn 12Cn	4r	12ra	12ra	.
[6FFF#X [6FF#X	.	12ggL	6b-X 6dd-X 6aa	.
.	.	12ff#XJ	.	.
4FFF#_ 4FF#_	2G 2e 2g	[4gg	2b- 2dd- 2aa	.
1FFF#] 1FF#]	.	6gg]	.	.
.	.	12ff#	.	.
.	2G 2e 2g	[4gg	2b- 2dd- 2aa	.
.	.	6gg]	.	.
.	.	12ff#	.	.
.	4G 4e 4g	4gg	4b- 4dd- 4aa	.
*	*	*v	*v	*
!!LO:LB:g=original
=8	=8	=8	=8
12EE-X 12E-X	4r	12r	.
[6AAA [6AA	.	12dd-XL 12ff-X 12ccc	.
.	.	12bb-X	.
4AAA_ 4AA_	[4B-X [4gn [4b-X	12aa	.
.	.	12gg-X	.
.	.	12ee-XJ	.
2AAA] 2AA]	8B-] 8g] 8b-]	12dd-L	.
.	.	12d-X 12f-X 12cc	.
.	8r	.	.
.	.	12b-X	.
.	4r	12a	.
.	.	12g-X	.
.	.	12e-XJ	.
*v	*v	*	*
*	*^	*
4r	12r	6d-	.
.	12cL	.	.
.	12B-XJ	[12d-	.
4r	12AL	12d-]	.
.	12G-X	6d-	.
.	12E-XJ	.	.
*	*v	*v	*
=9	=9	=9
12BBB-X 12BB-X	12r	.
[6FFF [6FF	12E-XL	.
.	12d-X	.
4FFF] 4FF]	12a	.
.	12g	.
.	12ccJ	.
12BBB- 12BB-	12r	.
[6FFF [6FF	12E-L	.
.	12d-	.
4FFF] 4FF]	12a	.
.	12g	.
.	12ffJ	.
12BBBn 12BBn	12r	.
[6FFF [6FF	12E-L	.
.	12dn	.
4FFF] 4FF]	12a	.
.	12g	.
.	[12ffJ	.
!!LO:LB:g=original
=10	=10	=10
*^	*^	*
12GGG 12GG	4r	4r	12ffL]	.
[6DDD-X [6DD-X	.	.	12ee-X	.
.	.	.	12b-XJ	.
2DDD-] 2DD-]	12E-X 12e-X	2c-X 2f	[4cc-X	.
.	[6E-- [6e--	.	.	.
.	1E--] 1e--]	.	1cc-]	.
20DD-LL	.	2c- 2f	.	.
20GG	.	.	.	.
20E--	.	.	.	.
20D-X	.	.	.	.
20GJJ	.	.	.	.
20e--LL	.	.	.	.
20G	.	.	.	.
20D-X	.	.	.	.
20E--	.	.	.	.
20GGJJ	.	.	.	.
4DD-	.	4c- 4f	.	.
*v	*v	*	*	*
*	*v	*v	*
=11	=11	=11
12CCn 12Cn	12r	.
[6GGG [6GG	12FL	.
.	12e-X	.
4GGG] 4GG]	12bn	.
.	12a	.
.	12ddnJ	.
12CC 12C	12r	.
[6GGG [6GG	12FL	.
.	12e-	.
4GGG] 4GG]	12b	.
.	12a	.
.	12ggJ	.
12CC#X 12C#X	12r	.
[6GGG [6GG	12FL	.
.	12en	.
4GGG] 4GG]	12b	.
.	12a	.
.	[12ggJ	.
!!LO:LB:g=original
=12	=12	=12
*^	*^	*
12AAA 12AA	4r	4r	12ggL]	.
[6EEE-X [6EE-X	.	.	12ff	.
.	.	.	12ccJ	.
2EEE-] 2EE-]	12F 12f	2d-X 2g	[4dd-X	.
.	[6F-X [6f-X	.	.	.
.	1F-] 1f-]	.	1dd-]	.
20EE-LL	.	2d- 2g	.	.
20AA	.	.	.	.
20F-	.	.	.	.
20E-X	.	.	.	.
20AJJ	.	.	.	.
20f-LL	.	.	.	.
20A	.	.	.	.
20E-X	.	.	.	.
20F-	.	.	.	.
20AAJJ	.	.	.	.
4EE-	.	4d- 4g	.	.
=13	=13	=13	=13	=13
12AAA 12AA	4r	4r	12rcc	.
[6EEE-X [6EE-X	.	.	12ccL	.
.	.	.	12dd-XJ	.
4EEE-_ 4EE-_	12r	12r	12ff-X	.
.	[6F-X [6f-X	[6cc [6gg	[6ccc	.
1EEE-] 1EE-]	8F-] 8f-]	2cc] 2gg]	2.ccc]	.
.	4F- 4f-	.	.	.
.	[8F- [8f-	.	.	.
.	2F-] 2f-]	12rc	.	.
.	.	12cL	.	.
.	.	12d-XJ	.	.
.	.	12f-X	4aa	.
.	.	6cc	.	.
!!LO:LB:g=original
=14	=14	=14	=14	=14
12EE-X 12E-X	4r	12ra	12ra	.
[6AAA [6AA	.	12bb-XL	6dd-X 6ff-X 6ccc	.
.	.	12aaJ	.	.
4AAA_ 4AA_	2B-X 2g 2b-X	[4bb-	2dd- 2ff- 2ccc	.
1AAA] 1AA]	.	6bb-]	.	.
.	.	12aa	.	.
.	2B- 2g 2b-	[4bb-	2dd- 2ff- 2ccc	.
.	.	6bb-]	.	.
.	.	12aa	.	.
.	4B- 4g 4b-	4bb-	4dd- 4ff- 4ccc	.
=15	=15	=15	=15	=15
12FF#X 12F#X	4r	12ra	12ra	.
[6BBB#X [6BB#X	.	12ccc#XL	6ee 6gg 6ddd#X	.
.	.	12bb#XJ	.	.
4BBB#_ 4BB#_	2c#X 2a#X 2cc#X	[4ccc#	2ee 2gg 2ddd#	.
1BBB#] 1BB#]	.	6ccc#]	.	.
.	.	12bb#	.	.
.	2c# 2a# 2cc#	[4ccc#	2ee 2gg 2ddd#	.
.	.	6ccc#]	.	.
.	.	12bb#	.	.
.	4c# 4a# 4cc#	4ccc#	4ee 4gg 4ddd#	.
*v	*v	*	*	*
!!LO:LB:g=original
=16	=16	=16	=16
12AAn 12An	4r	12rgg	.
[6DD#X [6D#X	.	12ggL 12bb-X 12fff#X	.
.	.	12eee	.
4DD#_ 4D#_	[4e [4cc#X [4ee	12ddd#X	.
.	.	12cccn	.
.	.	12aaJ	.
2DD#] 2D#]	12e] 12cc#] 12ee]	12ggL	.
.	12r	12g 12b-X 12ff#X	.
.	6r	12ee	.
.	.	12dd#X	.
.	6r	12ccn	.
.	.	12aJ	.
*	*v	*v	*
2AA 2E-X 2d-X	12gL	.
.	12Gn 12B-X 12g-X	.
.	12f-X	.
.	12e-X	.
.	12c	.
.	12AJ	.
=17	=17	=17
[1EEE-X [1EE-X	[1D-X< [1Gn<	.
2EEE-] 2EE-]	2D-<] 2G<]	.
==	==	==
*-	*-	*-
!!!system-decoration: {(*)}
!!!filter: flipper -a
!!!RDF**kern: < = below
!!!ENC: Bryan Jacob Bell
!!!END: November 2021 to April 2022
!!!PED: Günter Philipp
!!!PTL: Ausgewählte Klavierwerke (Edition Peters)
